packages/foundations/assets/icons/functional/images/buildings/train_station_24.svg

<svg xmlns="http://www.w3.org/2000/svg" width="24" height="24" fill="none"><g clip-path="url(#a)"><path fill="#1A1C1F" fill-rule="evenodd" d="M16.969 2C17.53 2 18 2.438 18 3v9h3c.563 0 1 .438 1 1v8c0 .5-.5 1-1 1h-7c-.5 0-1-.5-1-1.031V17.5c0-.25-.219-.5-.5-.5h-1.031c-.25 0-.469.25-.469.5v3.469C11 21.53 10.531 22 10 22H3c-.563 0-1-.469-1-1.031V13c0-.5.5-1 1-1h3V3c0-.563.469-1 1-1zM16 4H8v9c0 .563-.438 1-1 1H4v6h5v-2.5c0-1.375 1.125-2.5 2.469-2.5H12.5c1.344 0 2.469 1.125 2.469 2.5V20H20v-6h-3a.97.97 0 0 1-.688-.281A1.02 1.02 0 0 1 16 13zm-6 4c0-1.094.906-2 2-2s2 .906 2 2c0 1.125-.906 2-2 2s-2-.875-2-2" clip-rule="evenodd"/></g><defs><clipPath id="a"><path fill="#fff" d="M0 0h24v24H0z"/></clipPath></defs></svg>

<svg width="24" height="24" viewBox="0 0 24 24" fill="none" xmlns="http://www.w3.org/2000/svg">
<g clip-path="url(#clip0_184_217)">
<path fill-rule="evenodd" clip-rule="evenodd" d="M16.969 2C17.53 2 18 2.438 18 3V12H21C21.563 12 22 12.438 22 13V21C22 21.5 21.5 22 21 22H14C13.5 22 13 21.5 13 20.969V17.5C13 17.25 12.781 17 12.5 17H11.469C11.219 17 11 17.25 11 17.5V20.969C11 21.53 10.531 22 10 22H3C2.437 22 2 21.531 2 20.969V13C2 12.5 2.5 12 3 12H6V3C6 2.437 6.469 2 7 2H16.969ZM16 4H8V13C8 13.563 7.562 14 7 14H4V20H9V17.5C9 16.125 10.125 15 11.469 15H12.5C13.844 15 14.969 16.125 14.969 17.5V20H20V14H17C16.8725 14.0007 16.7461 13.9762 16.628 13.928C16.51 13.8798 16.4026 13.8088 16.312 13.719C16.2151 13.6257 16.1376 13.5141 16.084 13.3907C16.0305 13.2673 16.0019 13.1345 16 13V4ZM10 8C10 6.906 10.906 6 12 6C13.094 6 14 6.906 14 8C14 9.125 13.094 10 12 10C10.906 10 10 9.125 10 8Z" fill="#1A1C1F"/>
</g>
<defs>
<clipPath id="clip0_184_217">
<rect width="24" height="24" fill="white"/>
</clipPath>
</defs>
</svg>
